svgs/dawn_ai.svg

<svg width="192" height="192" viewBox="0 0 192 192" fill="none" xmlns="http://www.w3.org/2000/svg">
<path d="M97.4028 171.856C91.4785 170.915 87.4837 164.816 88.3749 158.761L88.3539 158.751C89.2243 152.91 87.7458 148.781 85.0406 144.641C82.9331 141.41 75.4885 138.468 71.3049 137.024C67.4357 135.686 64.5313 132.209 64.2167 128.059C64.1957 127.759 64.1853 127.46 64.1853 127.16C64.1853 119.597 71.3992 113.756 79.1898 116.409C84.422 118.195 87.1796 124.015 85.8374 129.471C84.1284 136.392 86.8231 140.522 89.5178 144.641C91.7616 148.063 97.6439 149.112 100.433 149.422C102.562 149.657 104.627 150.395 106.284 151.776C108.79 153.872 110.384 157.05 110.384 160.601C110.384 167.502 104.376 172.968 97.4028 171.856Z" stroke="black" stroke-width="8" stroke-miterlimit="10" stroke-linejoin="round"/>
<path d="M162.013 133.013C157.933 137.605 150.607 137.749 146.035 133.709L146.014 133.722C141.608 129.816 137.329 128.857 132.36 128.948C128.484 129.018 121.884 133.837 118.35 136.659C115.08 139.267 110.556 139.888 106.906 137.916C106.644 137.772 106.387 137.62 106.137 137.458C99.805 133.37 98.9249 124.003 105.476 118.73C109.88 115.19 116.284 115.961 120.104 120.065C124.949 125.277 129.904 125.188 134.849 125.094C138.961 125.013 143.108 120.514 144.919 118.281C146.299 116.575 148.064 115.196 150.14 114.516C153.289 113.491 156.834 113.836 159.807 115.756C165.584 119.484 166.82 127.611 162.013 133.013Z" stroke="black" stroke-width="8" stroke-miterlimit="10" stroke-linejoin="round"/>
<path d="M161.112 50.8745C163.628 56.4786 160.757 63.219 155.198 65.7348L155.201 65.7587C149.832 68.1765 147.204 71.6862 145.251 76.2564C143.725 79.8199 145.416 87.8157 146.541 92.1959C147.58 96.2475 146.293 100.63 142.998 103.15C142.759 103.33 142.515 103.502 142.263 103.664C135.94 107.764 127.036 104.727 124.91 96.5905C123.487 91.1232 126.815 85.5975 132.125 83.7941C138.864 81.5118 140.814 76.9563 142.755 72.4067C144.366 68.6216 141.963 62.9955 140.668 60.4292C139.677 58.4714 139.143 56.2951 139.373 54.1226C139.73 50.8313 141.497 47.7386 144.466 45.8134C150.235 42.0731 158.155 44.2759 161.112 50.8745Z" stroke="black" stroke-width="8" stroke-miterlimit="10" stroke-linejoin="round"/>
<path d="M92.2604 20.1119C98.3474 20.9386 102.552 26.9384 101.75 32.9872L101.771 32.9974C100.986 38.8327 102.576 42.9187 105.423 46.9924C107.641 50.1714 115.323 52.9625 119.635 54.3228C123.624 55.5824 126.663 58.9916 127.061 63.1207C127.088 63.4187 127.104 63.717 127.11 64.0154C127.248 71.5501 119.963 77.5044 111.932 75.0074C106.539 73.3258 103.607 67.5799 104.883 62.1194C106.508 55.1921 103.672 51.1289 100.836 47.0764C98.4741 43.7081 92.428 42.774 89.5647 42.5172C87.3795 42.3227 85.2496 41.6261 83.527 40.2824C80.9212 38.2405 79.2303 35.1052 79.1655 31.5669C79.0397 24.6929 85.0958 19.1344 92.2604 20.1119Z" stroke="black" stroke-width="8" stroke-miterlimit="10" stroke-linejoin="round"/>
<path d="M31.4183 59.0412C35.5106 54.4598 42.8358 54.3343 47.3989 58.3853L47.4194 58.373C51.8154 62.29 56.0914 63.2595 61.0608 63.1804C64.9368 63.1216 71.5493 58.3188 75.0907 55.5063C78.3672 52.9062 82.8934 52.296 86.5378 54.2775C86.7999 54.422 87.056 54.5754 87.3064 54.7379C93.6273 58.8412 94.4837 68.2108 87.9195 73.4677C83.5069 76.9958 77.1045 76.2088 73.2938 72.0952C68.463 66.8711 63.5083 66.947 58.5626 67.0288C54.4496 67.1002 50.2913 71.5874 48.4757 73.8164C47.0913 75.5183 45.3219 76.8933 43.2441 77.5686C40.0935 78.5851 36.5489 78.2312 33.5807 76.3043C27.814 72.5608 26.5978 64.4309 31.4183 59.0412Z" stroke="black" stroke-width="8" stroke-miterlimit="10" stroke-linejoin="round"/>
<path d="M30.2999 134.542C28.2841 128.74 31.7336 122.276 37.4914 120.256L37.4907 120.232C43.0502 118.294 45.9752 115.028 48.3206 110.646C50.1526 107.229 49.1678 99.116 48.4303 94.6543C47.7497 90.5271 49.4156 86.2746 52.9182 84.0521C53.1718 83.8933 53.4304 83.7439 53.6942 83.6041C60.3518 80.0732 68.9571 83.8773 70.3622 92.1689C71.3018 97.7397 67.5031 102.953 62.0562 104.285C55.1429 105.969 52.8019 110.337 50.4703 114.698C48.5343 118.328 50.4358 124.143 51.5019 126.813C52.3167 128.85 52.6586 131.065 52.2393 133.209C51.5969 136.456 49.5654 139.382 46.4389 141.04C40.3652 144.261 32.6684 141.375 30.2999 134.542Z" stroke="black" stroke-width="8" stroke-miterlimit="10" stroke-linejoin="round"/>
<path d="M134.487 157.94C138.37 157.94 141.517 154.792 141.517 150.91C141.517 147.027 138.37 143.88 134.487 143.88C130.604 143.88 127.457 147.027 127.457 150.91C127.457 154.792 130.604 157.94 134.487 157.94Z" stroke="black" stroke-width="8" stroke-miterlimit="10" stroke-linejoin="round"/>
<path d="M67.1981 165.974C71.0808 165.974 74.2283 162.827 74.2283 158.944C74.2283 155.062 71.0808 151.914 67.1981 151.914C63.3155 151.914 60.168 155.062 60.168 158.944C60.168 162.827 63.3155 165.974 67.1981 165.974Z" stroke="black" stroke-width="8" stroke-miterlimit="10" stroke-linejoin="round"/>
<path d="M164.616 90.6511C168.499 90.6511 171.647 87.5036 171.647 83.6209C171.647 79.7382 168.499 76.5907 164.616 76.5907C160.734 76.5907 157.586 79.7382 157.586 83.6209C157.586 87.5036 160.734 90.6511 164.616 90.6511Z" stroke="black" stroke-width="8" stroke-miterlimit="10" stroke-linejoin="round"/>
<path d="M28.0302 107.724C31.9128 107.724 35.0603 104.577 35.0603 100.694C35.0603 96.8115 31.9128 93.664 28.0302 93.664C24.1475 93.664 21 96.8115 21 100.694C21 104.577 24.1475 107.724 28.0302 107.724Z" stroke="black" stroke-width="8" stroke-miterlimit="10" stroke-linejoin="round"/>
<path d="M59.1637 48.47C63.0464 48.47 66.1939 45.3225 66.1939 41.4399C66.1939 37.5572 63.0464 34.4097 59.1637 34.4097C55.2811 34.4097 52.1335 37.5572 52.1335 41.4399C52.1335 45.3225 55.2811 48.47 59.1637 48.47Z" stroke="black" stroke-width="8" stroke-miterlimit="10" stroke-linejoin="round"/>
<path d="M123.44 40.4356C127.322 40.4356 130.47 37.2881 130.47 33.4054C130.47 29.5228 127.322 26.3752 123.44 26.3752C119.557 26.3752 116.409 29.5228 116.409 33.4054C116.409 37.2881 119.557 40.4356 123.44 40.4356Z" stroke="black" stroke-width="8" stroke-miterlimit="10" stroke-linejoin="round"/>
</svg>

<svg width="192" height="192" viewBox="0 0 192 192" fill="none" xmlns="http://www.w3.org/2000/svg"><path d="M97.403 171.856c-5.925-.941-9.92-7.04-9.028-13.095l-.021-.01c.87-5.841-.608-9.97-3.313-14.11-2.108-3.231-9.552-6.173-13.736-7.617-3.87-1.338-6.774-4.815-7.088-8.965-.021-.3-.032-.599-.032-.899 0-7.563 7.214-13.404 15.005-10.751 5.232 1.786 7.99 7.606 6.647 13.062-1.709 6.921.986 11.051 3.68 15.17 2.245 3.422 8.127 4.471 10.916 4.781 2.129.235 4.194.973 5.851 2.354a11.475 11.475 0 0 1 4.1 8.825c0 6.901-6.008 12.367-12.981 11.255ZM162.013 133.013c-4.08 4.592-11.406 4.736-15.978.696l-.021.013c-4.406-3.906-8.685-4.865-13.654-4.774-3.876.07-10.476 4.889-14.01 7.711-3.27 2.608-7.794 3.229-11.444 1.257a12.364 12.364 0 0 1-.769-.458c-6.332-4.088-7.212-13.455-.661-18.728 4.404-3.54 10.808-2.769 14.628 1.335 4.845 5.212 9.8 5.123 14.745 5.029 4.112-.081 8.259-4.58 10.07-6.813 1.38-1.706 3.145-3.085 5.221-3.765 3.149-1.025 6.694-.68 9.667 1.24 5.777 3.728 7.013 11.855 2.206 17.257ZM161.112 50.874c2.516 5.605-.355 12.345-5.914 14.86l.003.025c-5.369 2.418-7.997 5.927-9.95 10.497-1.526 3.564.165 11.56 1.29 15.94 1.039 4.052-.248 8.434-3.543 10.954-.239.18-.483.352-.735.514-6.323 4.1-15.227 1.063-17.353-7.073-1.423-5.468 1.905-10.993 7.215-12.797 6.739-2.282 8.689-6.838 10.63-11.387 1.611-3.785-.792-9.411-2.087-11.978-.991-1.958-1.525-4.134-1.295-6.306.357-3.292 2.124-6.384 5.093-8.31 5.769-3.74 13.689-1.537 16.646 5.061ZM92.26 20.112c6.087.827 10.292 6.826 9.49 12.875l.021.01c-.785 5.836.805 9.922 3.652 13.995 2.218 3.18 9.9 5.97 14.212 7.33 3.989 1.26 7.028 4.67 7.426 8.799.027.298.043.596.049.894.138 7.535-7.147 13.49-15.178 10.992-5.393-1.681-8.325-7.427-7.049-12.888 1.625-6.927-1.211-10.99-4.047-15.043-2.362-3.368-8.408-4.302-11.271-4.559-2.186-.194-4.315-.89-6.038-2.235-2.606-2.041-4.297-5.177-4.362-8.715-.125-6.874 5.93-12.433 13.095-11.455ZM31.418 59.041c4.093-4.581 11.418-4.707 15.98-.656l.021-.012c4.396 3.917 8.672 4.887 13.642 4.807 3.876-.058 10.488-4.861 14.03-7.674 3.276-2.6 7.802-3.21 11.447-1.228.262.144.518.297.768.46 6.321 4.103 7.178 13.473.614 18.73-4.413 3.528-10.816 2.74-14.626-1.373-4.831-5.224-9.786-5.148-14.731-5.066-4.113.071-8.272 4.558-10.087 6.787-1.385 1.702-3.154 3.077-5.232 3.753-3.15 1.016-6.695.662-9.663-1.265-5.767-3.743-6.983-11.873-2.163-17.263ZM30.3 134.542c-2.016-5.802 1.434-12.266 7.191-14.286v-.024c5.56-1.938 8.484-5.204 10.83-9.586 1.832-3.417.847-11.53.11-15.992-.681-4.127.985-8.38 4.487-10.602.254-.159.512-.308.776-.448 6.658-3.53 15.263.273 16.668 8.565.94 5.57-2.859 10.784-8.306 12.116-6.913 1.684-9.254 6.052-11.586 10.413-1.936 3.63-.034 9.445 1.032 12.115.815 2.037 1.157 4.252.737 6.396-.642 3.247-2.674 6.173-5.8 7.831-6.074 3.221-13.77.335-16.14-6.498ZM134.487 157.94a7.03 7.03 0 1 0 0-14.06 7.03 7.03 0 0 0 0 14.06ZM67.198 165.974a7.03 7.03 0 1 0 0-14.06 7.03 7.03 0 0 0 0 14.06ZM164.616 90.651a7.03 7.03 0 1 0 0-14.061 7.03 7.03 0 0 0 0 14.061ZM28.03 107.724a7.03 7.03 0 1 0 0-14.06 7.03 7.03 0 1 0 0 14.06ZM59.164 48.47a7.03 7.03 0 1 0 0-14.06 7.03 7.03 0 0 0 0 14.06ZM123.44 40.436a7.03 7.03 0 1 0 0-14.061 7.03 7.03 0 0 0 0 14.06Z" stroke="#000" stroke-width="8" stroke-miterlimit="10" stroke-linejoin="round"/></svg>
